src/lib/packages/icons/src/assets/filled/jump-rope.svg

<svg width="24" height="24" viewBox="0 0 24 24" fill="none" xmlns="http://www.w3.org/2000/svg">
<path d="M21.5 5.14994V8.94996C21.5 9.11996 21.37 9.24994 21.2 9.24994H16.8C16.63 9.24994 16.5 9.11996 16.5 8.94996V4.99994C16.5 3.53994 17.77 2.35995 19.26 2.50995C20.56 2.63995 21.5 3.83996 21.5 5.13996V5.14994ZM21.2 10.7499H16.8C16.63 10.7499 16.5 10.8799 16.5 11.0499V12.9999C16.5 13.2799 16.72 13.4999 17 13.4999H18.25V16.4999C18.25 18.0199 17.02 19.2499 15.5 19.2499C13.98 19.2499 12.75 18.0199 12.75 16.4999V7.49994C12.75 5.15994 10.84 3.24994 8.5 3.24994C6.16 3.24994 4.25 5.15994 4.25 7.49994V10.4999H3C2.72 10.4999 2.5 10.7199 2.5 10.9999V12.95C2.5 13.12 2.63 13.2499 2.8 13.2499H7.2C7.37 13.2499 7.5 13.12 7.5 12.95V10.9999C7.5 10.7199 7.28 10.4999 7 10.4999H5.75V7.49994C5.75 5.97994 6.98 4.74994 8.5 4.74994C10.02 4.74994 11.25 5.97994 11.25 7.49994V16.4999C11.25 18.8399 13.16 20.7499 15.5 20.7499C17.84 20.7499 19.75 18.8399 19.75 16.4999V13.4999H21C21.28 13.4999 21.5 13.2799 21.5 12.9999V11.0499C21.5 10.8799 21.37 10.7499 21.2 10.7499ZM7.2 14.7499H2.8C2.63 14.7499 2.5 14.8799 2.5 15.0499V18.8499C2.5 20.1599 3.44001 21.35 4.74001 21.48C6.24001 21.63 7.5 20.4599 7.5 18.9899V15.04C7.5 14.87 7.37 14.7399 7.2 14.7399V14.7499Z" fill="currentColor"/>
</svg>

<svg xmlns="http://www.w3.org/2000/svg" width="24" height="24" fill="none"><path fill="currentColor" d="M21.5 5.15v3.8c0 .17-.13.3-.3.3h-4.4c-.17 0-.3-.13-.3-.3V5c0-1.46 1.27-2.64 2.76-2.49 1.3.13 2.24 1.33 2.24 2.63v.01Zm-.3 5.6h-4.4c-.17 0-.3.13-.3.3V13c0 .28.22.5.5.5h1.25v3c0 1.52-1.23 2.75-2.75 2.75s-2.75-1.23-2.75-2.75v-9A4.26 4.26 0 0 0 8.5 3.25 4.26 4.26 0 0 0 4.25 7.5v3H3c-.28 0-.5.22-.5.5v1.95c0 .17.13.3.3.3h4.4c.17 0 .3-.13.3-.3V11c0-.28-.22-.5-.5-.5H5.75v-3c0-1.52 1.23-2.75 2.75-2.75s2.75 1.23 2.75 2.75v9a4.26 4.26 0 0 0 4.25 4.25 4.26 4.26 0 0 0 4.25-4.25v-3H21c.28 0 .5-.22.5-.5v-1.95c0-.17-.13-.3-.3-.3Zm-14 4H2.8c-.17 0-.3.13-.3.3v3.8c0 1.31.94 2.5 2.24 2.63a2.5 2.5 0 0 0 2.76-2.49v-3.95c0-.17-.13-.3-.3-.3v.01Z"/></svg>
